X: 1
T: The Donegal Lass
M: 6/8
L: 1/8
K:Dmaj
O: Brian Finnegan
|: "A"Ace aed|cdB A3|"G"GBd G3|"D"FAd F3|
"A"Ace aed|cdB A2a|"E"aed cdB|"A"ABG A3:|
|:"G"GBd G2G|"D"FAd F2F|"A"e2e ecA|e2e ecA|
"G"GBd G2G|"D"FAd F2a|"A"aed cdB|ABG A3:|
